X: 34895
T: Robinson's
R: reel
M: 4/4
K: Amixolydian
cABG FAE2|FAde cAAB|cABG Acdf|ec (3Bcd cAAB|
cABG FAE2|FAde cAEF|G2BG dGBf|geed BAA^g||

